images/brands/merveilles.svg

<?xml version="1.0" encoding="UTF-8" standalone="no"?>
<svg
   xmlns:dc="http://purl.org/dc/elements/1.1/"
   xmlns:cc="http://creativecommons.org/ns#"
   xmlns:rdf="http://www.w3.org/1999/02/22-rdf-syntax-ns#"
   xmlns:svg="http://www.w3.org/2000/svg"
   xmlns="http://www.w3.org/2000/svg"
   xmlns:sodipodi="http://sodipodi.sourceforge.net/DTD/sodipodi-0.dtd"
   xmlns:inkscape="http://www.inkscape.org/namespaces/inkscape"
   version="1.1"
   width="32"
   height="32"
   style="fill:#000000;stroke:none"
   id="svg8"
   sodipodi:docname="merveilles.svg"
   inkscape:version="0.92.3 (2405546, 2018-03-11)">
  <metadata
     id="metadata14">
    <rdf:RDF>
      <cc:Work
         rdf:about="">
        <dc:format>image/svg+xml</dc:format>
        <dc:type
           rdf:resource="http://purl.org/dc/dcmitype/StillImage" />
        <dc:title></dc:title>
      </cc:Work>
    </rdf:RDF>
  </metadata>
  <defs
     id="defs12" />
  <sodipodi:namedview
     pagecolor="#ffffff"
     bordercolor="#666666"
     borderopacity="1"
     objecttolerance="10"
     gridtolerance="10"
     guidetolerance="10"
     inkscape:pageopacity="0"
     inkscape:pageshadow="2"
     inkscape:window-width="2560"
     inkscape:window-height="962"
     id="namedview10"
     showgrid="false"
     inkscape:zoom="1.0727273"
     inkscape:cx="5.1271186"
     inkscape:cy="110"
     inkscape:window-x="0"
     inkscape:window-y="30"
     inkscape:window-maximized="1"
     inkscape:current-layer="svg8" />
  <g
     transform="matrix(0.17777778,0,0,0.17777778,-11.555556,-11.55556)"
     id="g6"
     style="stroke-width:5.625">
    <path
       d="m 185,65 a 60,60 0 0 0 -60,60 h 60 z m -60,180 a 60,60 0 0 0 60,-60 H 125 Z M 95,125 a 30,30 0 0 1 30,30 30,30 0 0 1 -30,30 30,30 0 0 1 -30,-30 30,30 0 0 1 30,-30 z m 60,0 a 30,30 0 0 1 30,30 30,30 0 0 1 -30,30 30,30 0 0 1 -30,-30 30,30 0 0 1 30,-30 z m 60,0 a 30,30 0 0 1 30,30 30,30 0 0 1 -30,30 30,30 0 0 1 -30,-30 30,30 0 0 1 30,-30"
       id="path2"
       inkscape:connector-curvature="0"
       style="stroke-width:5.625" />
    <path
       d="m 125,65 a 60,60 0 0 1 60,60 h -60 z m 60,180 a 60,60 0 0 1 -60,-60 h 60 z M 65,65 a 60,60 0 0 1 60,60 H 65 Z m 0,180 a 60,60 0 0 0 60,-60 H 65 Z M 245,65 a 60,60 0 0 0 -60,60 h 60 z m 0,180 a 60,60 0 0 1 -60,-60 h 60 z"
       id="path4"
       inkscape:connector-curvature="0"
       style="stroke-width:5.625" />
  </g>
</svg>

<svg xmlns="http://www.w3.org/2000/svg" baseProfile="full" version="1.1" width="220px" height="220px" style="stroke:none; fill: #000">
  <g transform="translate(-45 -45)">
    <path d="M185,65 A60,60 0 0,0 125,125 L185,125 Z M125,245 A60,60 0 0,0 185,185 L125,185 Z M95,125 A30,30 0 0,1 125,155 A30,30 0 0,1 95,185 A30,30 0 0,1 65,155 A30,30 0 0,1 95,125 Z M155,125 A30,30 0 0,1 185,155 A30,30 0 0,1 155,185 A30,30 0 0,1 125,155 A30,30 0 0,1 155,125 Z M215,125 A30,30 0 0,1 245,155 A30,30 0 0,1 215,185 A30,30 0 0,1 185,155 A30,30 0 0,1 215,125 "/>
    <path d="M125,65 A60,60 0 0,1 185,125 L125,125 Z M185,245 A60,60 0 0,1 125,185 L185,185 Z M65,65 A60,60 0 0,1 125,125 L65,125 Z M65,245 A60,60 0 0,0 125,185 L65,185 Z M245,65 A60,60 0 0,0 185,125 L245,125 Z M245,245 A60,60 0 0,1 185,185 L245,185 Z"/>
  </g>
</svg>
